X:64
T:Blue Bells of Scotland, The
C:arr. Carlo Minasi
M:2/4
L:1/8
B:Chappell's One Hundred Scotch Melodies
B:Arranged for the Concertina by Carlo Minasi
Q:"Andante  "1/4=100
Z:Peter Dunk 2012
K:F
!p!c|([f2A2] [ec][dB]|[c2A2]) L([dB]e/f/)|\
.[AF]([AF][BG][GC])|.[F2A,2]z c|([f2c2A2F2][eBF]d)|
%
[c2A2F2] ([dBFB,]e/f/)|[AFC](A[BEC][GC]|[F2A,2]) z||\
c|(AF)(Ac)|[f2A2D2]([d=BG]e/f/)|
%
([ecGC][cE][dF][=BFDG,])|([c3G3E3C3][d/=B/][e/_B/])|\
([f2A2] [ec][dB]|[c2A2]) L([dBFB,]e/f/)|\
[AFC](A[BEC][GC])|[F3A,3]||

